app/dist/common/images/applied-digital.svg

<svg height="18" viewBox="0 0 18 18" width="18" xmlns="http://www.w3.org/2000/svg"><path d="m0 0h18v18h-18z" fill="#181b1e"/><path d="m8.5 3h1v4h-1zm-2.5 1h1v3h-1zm-2 2h1v2h-1zm8-2h-1v3h1zm2 2h-1v2h1zm-5.5 9h1v-4h-1zm-2.5-1h1v-3h-1zm-2-2h1v-2h-1zm8 2h-1v-3h1zm2-2h-1v-2h1z" fill="#fefefe"/></svg>

<!-- by TradingView --><svg width="18" height="18" viewBox="0 0 18 18" xmlns="http://www.w3.org/2000/svg"><path fill="#181B1E" d="M0 0h18v18H0z"/><path d="M8.5 3h1v4h-1V3ZM6 4h1v3H6zM4 6h1v2H4zM12 4h-1v3h1zM14 6h-1v2h1zM8.5 15h1v-4h-1v4ZM6 14h1v-3H6zM4 12h1v-2H4zM12 14h-1v-3h1zM14 12h-1v-2h1z" fill="#FEFEFE"/></svg>
